X:22
T:Valse a David
R:valse
C:trad.
A:Morvan
O:France
M:3/4
L:1/4
Q:1/4=200
K:G
BAG|B3|BAG|c3|ABc|ABc|fed|1B3:|2G3|
GBd|GBd|GBd|e3-|e3|Ace|Ace|Ace|d2B|d3|
GBd|GBd|GBd|e3-|e3|f3-|fed|g3-|g3||
